X: 177
T: Aşkın O Sihirli Elini...
C: Erol Sayan
O: Turkey
F: http://compmusic.upf.edu/node/140
N: segah--sarki--duyek--askin_o_sihirli--erol_sayan
N: makam= segah
N: form= sarki
N: usul= duyek = 8/4
M: 8/4
L: 1/16
K: C _1/4B _1/4e ^f 
Q: 1/4=252
%%MIDI tuningsystem comma53
G4 B2 d2 =f2 e2 d4  | f4 f4 g2 ^a2 b4  | \
w:  ARANAĞME  |   | 
c'2 b4 ^a2 g4 b2 c'2  | d'2 c'2 ^a2 =a2 g2 =f2 e2 d2  | 
w:   |   | 
e2 =f4 e2 d4 ^c2 d2  | B6 G2 B2 G2 B4  | \
w:   |   | 
G4 B2 d2 =f2 e2 d4  | f4 f4 g2 ^a2 b4  | 
w:  ARANAĞME  |   | 
c'2 b4 ^a2 g4 b2 c'2  | d'2 c'2 ^a2 =a2 g2 =f2 e2 d2  | \
w:   |   | 
e2 =f4 e2 d2 c2 B2 ^A2  | 
w:   | 
B6 G2 B2 G2 B4  | G4 B4 d2 d2 d4  | e4 =f2 e2 d8  | \
w:   |  Aş kın o si hir  |  li e li ni  | 
z2 f4 f2 g4 f2 =f2  | f6 de dc B^A B4  | 
w:  his se der gi bi  |  yim  | 
G4 B4 d2 d2 d4  | e4 =f2 e2 d8  | z2 f4 f2 g4 f2 =f2  | \
w:  Aş kın o si hir  |  li e li ni  |  his se der gi bi  | 
f4 f2 f2 (3d2e2f2 g4  | 
w:  yim  | 
f2 g4 ^a2 =a2 g2 =f2 e2  | =f2 e2 d2 ^c2 d8  | \
w:  Ke der li o la mam  |  ben ar *  *  tık  | 
e2 =f2 e4 d4 ^c2 d2  | B8 (3d2e2f2 g4  | 
w:  gü le rim neş e li  |  yim  | 
f2 g4 ^a2 =a2 g2 =f2 e2  | =f2 e2 d2 ^c2 d8  | \
w:  Ke der li o la mam  |  ben ar *  *  tık  | 
e2 =f2 e4 d4 ^c2 d2  | B6 G2 B2 G2 B4  | 
w:  gü le rim neş e li  |  yim  | 
B2 B4 B2 B4 B4  | d2 d4 d2 d4 d4  | e8 d4 ^c2 d2  | B16  | \
w:  Ah  |   |  ah  |   | 
B2 B4 B2 B4 B4  | d2 d4 d2 d4 d4  | 
w:  Ah  |   | 
e8 d4 ^c2 d2  | B16  | ^c4 d4 =f2 e2 d4  | \
w:  ah  |   |  Dün ya ne gü zel  | 
f4 f4 g2 ^a2 b4  | c'2 b4 ^a2 g4 b2 c'2  | 
w:  sev mek ne gü zel  |  se vil *  mek ne gü  | 
d'2 c'2 ^a2 =a2 g2 =f2 e2 d2  | e2 =f4 e2 d4 ^c2 d2  | \
w:  zel  |  Ne tat lı şey ya şa  | 
^c8 (3d2c2d2 B4  | ^c4 d4 =f2 e2 d4  | 
w:  mak  |  Dün ya ne gü zel  | 
f4 f4 g2 ^a2 b4  | c'2 b4 ^a2 g4 b2 c'2  | \
w:  sev mek ne gü zel  |  se vil *  mek ne gü  | 
d'2 c'2 ^a2 =a2 g2 =f2 e2 d2  | e2 =f4 e2 d2 c2 B2 ^A2  | 
w:  zel  |  Ne tat lı şey *  ya şa  | 
B4 B2 B2 G4 B4  | |


